public/assets/images/feature/02.svg

<svg width="56" height="57" viewBox="0 0 56 57" fill="none" xmlns="http://www.w3.org/2000/svg">
<path d="M43.75 38.125C40.3725 38.125 37.625 40.8725 37.625 44.25C37.625 47.6275 40.3725 50.375 43.75 50.375C47.1275 50.375 49.875 47.6275 49.875 44.25C49.875 40.8725 47.1275 38.125 43.75 38.125ZM43.75 48.625C41.3376 48.625 39.375 46.6624 39.375 44.25C39.375 41.8376 41.3376 39.875 43.75 39.875C46.1624 39.875 48.125 41.8376 48.125 44.25C48.125 46.6624 46.1624 48.625 43.75 48.625Z" fill="#0F62FE"/>
<path d="M43.75 41.625C42.3027 41.625 41.125 42.8027 41.125 44.25C41.125 45.6972 42.3027 46.875 43.75 46.875C45.1972 46.875 46.375 45.6972 46.375 44.25C46.375 42.8027 45.1972 41.625 43.75 41.625ZM43.75 45.125C43.2679 45.125 42.875 44.7321 42.875 44.25C42.875 43.7679 43.2679 43.375 43.75 43.375C44.2321 43.375 44.625 43.7679 44.625 44.25C44.625 44.7321 44.2321 45.125 43.75 45.125Z" fill="#0F62FE"/>
<path d="M3.16575 23.25H3.5V36.375H5.25V21.5H3.16575C2.86738 21.5 2.625 21.2576 2.625 20.9592C2.625 20.8761 2.64425 20.7921 2.68187 20.7178L5.64113 14.7992C5.82575 14.4309 6.42425 14.4309 6.608 14.7992L9.56725 20.7178C9.60575 20.7921 9.625 20.8761 9.625 20.9592C9.625 21.2576 9.38262 21.5 9.08425 21.5H7V36.375H8.75V23.25H9.08425C10.3477 23.25 11.375 22.2227 11.375 20.9592C11.375 20.6058 11.291 20.2514 11.1335 19.9346L8.17425 14.017C7.784 13.2356 6.99913 12.75 6.125 12.75C5.25087 12.75 4.466 13.2356 4.07575 14.0161L1.1165 19.9346C0.959 20.2514 0.875 20.6058 0.875 20.9592C0.875 22.2227 1.90225 23.25 3.16575 23.25Z" fill="#0F62FE"/>
<path d="M16.3258 25.483C16.716 26.2644 17.5009 26.75 18.375 26.75C19.2491 26.75 20.034 26.2644 20.4242 25.4839L23.3835 19.5654C23.541 19.2486 23.625 18.8942 23.625 18.5408C23.625 17.2773 22.5977 16.25 21.3342 16.25H21V3.125H19.25V18H21.3342C21.6326 18 21.875 18.2424 21.875 18.5408C21.875 18.6239 21.8557 18.7079 21.8181 18.7822L18.8589 24.7008C18.6742 25.0691 18.0757 25.0691 17.892 24.7008L14.9327 18.7822C14.8943 18.7079 14.875 18.6239 14.875 18.5408C14.875 18.2424 15.1174 18 15.4158 18H17.5V3.125H15.75V16.25H15.4158C14.1523 16.25 13.125 17.2773 13.125 18.5408C13.125 18.8942 13.209 19.2486 13.3665 19.5654L16.3258 25.483Z" fill="#0F62FE"/>
<path d="M50.75 1.375H29.75C27.3376 1.375 25.375 3.33763 25.375 5.75V29.4126C21.8321 29.6882 18.5929 31.6229 16.6679 34.6276C16.6539 34.6276 16.6399 34.625 16.625 34.625C13.0673 34.625 9.85775 36.8221 8.52862 40.0684C8.03162 39.9398 7.52063 39.875 7 39.875C3.6225 39.875 0.875 42.6225 0.875 46C0.875 49.3775 3.6225 52.125 7 52.125H35.539L36.015 52.601C36.8392 53.4244 38.0914 53.6256 39.1309 53.0997C39.3768 52.9737 39.655 52.9624 39.8956 53.0665C40.0085 53.1155 40.1231 53.1628 40.2369 53.2074C40.4819 53.3019 40.6718 53.5092 40.7584 53.7744C41.1224 54.8812 42.1496 55.625 43.3142 55.625H44.1858C45.3504 55.625 46.3776 54.8812 46.7416 53.7735C46.8282 53.5093 47.0181 53.3027 47.2614 53.2082C47.3769 53.1636 47.4915 53.1172 47.6052 53.0674C47.8433 52.9632 48.1224 52.9764 48.3691 53.1006C49.4095 53.6265 50.6608 53.4252 51.485 52.6019L52.1019 51.9859C52.9261 51.1625 53.1265 49.9095 52.6006 48.87C52.4755 48.6232 52.4641 48.345 52.5674 48.1052C52.6164 47.9924 52.6636 47.8778 52.7082 47.764C52.8027 47.519 53.0101 47.3291 53.2753 47.2425C54.3813 46.8776 55.125 45.8504 55.125 44.6858V44.25V43.8142V5.75C55.125 3.33763 53.1624 1.375 50.75 1.375ZM29.75 3.125H50.75C52.1973 3.125 53.375 4.30275 53.375 5.75V41.3004C53.34 41.2873 53.3085 41.2698 53.2735 41.2575C53.0093 41.1709 52.8027 40.981 52.7082 40.7378C52.6636 40.6222 52.6172 40.5076 52.5674 40.3939C52.4641 40.155 52.4764 39.8768 52.6006 39.63C53.1265 38.5905 52.9261 37.3375 52.1019 36.5141L51.625 36.0381V6.625C51.625 5.65987 50.8401 4.875 49.875 4.875H30.625C29.6599 4.875 28.875 5.65987 28.875 6.625V29.6865C28.3036 29.55 27.7191 29.4555 27.125 29.4091V5.75C27.125 4.30275 28.3027 3.125 29.75 3.125ZM36.3825 35.5945C35.1461 33.1734 33.0838 31.2956 30.625 30.2631V27.625H49.875V35.1316C49.3693 35.0765 48.8477 35.1579 48.3691 35.3994C48.1232 35.5245 47.845 35.5368 47.6044 35.4326C47.4924 35.3836 47.3778 35.3372 47.2631 35.2918C47.019 35.1973 46.8282 34.9899 46.7416 34.7247C46.3776 33.6187 45.3504 32.875 44.1858 32.875H43.3142C42.1496 32.875 41.1224 33.6188 40.7584 34.7265C40.6718 34.9907 40.4819 35.1973 40.2369 35.2918C40.1222 35.3364 40.0085 35.3828 39.8948 35.4326C39.6559 35.5359 39.3776 35.5245 39.1309 35.3994C38.2349 34.947 37.184 35.0354 36.3825 35.5945ZM49.875 11.875H30.625V6.625H49.875V11.875ZM30.625 13.625H49.875V18.875H30.625V13.625ZM30.625 20.625H49.875V25.875H30.625V20.625ZM2.625 46C2.625 43.5876 4.58763 41.625 7 41.625C7.59587 41.625 8.176 41.744 8.72287 41.9785L9.632 42.3679L9.9085 41.4185C10.7713 38.4487 13.5336 36.375 16.625 36.375C18.9656 36.375 21.1426 37.5387 22.4464 39.4865L23.9006 38.5135C22.6529 36.6497 20.7646 35.3679 18.6357 34.8656C20.4452 32.532 23.2575 31.125 26.25 31.125C30.0764 31.125 33.558 33.4341 35.0744 36.9157C34.5354 37.7129 34.4531 38.7471 34.9003 39.63C35.0254 39.8768 35.0368 40.155 34.9335 40.3948C34.8845 40.5076 34.8372 40.6222 34.7926 40.736C34.6981 40.981 34.4908 41.1709 34.2256 41.2575C33.1188 41.6224 32.375 42.6496 32.375 43.8142V44.6858C32.375 45.8504 33.1188 46.8776 34.2265 47.2416C34.4907 47.3282 34.6973 47.5181 34.7918 47.7614C34.8364 47.8769 34.8828 47.9915 34.9326 48.1052C35.0359 48.3441 35.0236 48.6224 34.8994 48.8691C34.6579 49.3469 34.5765 49.8693 34.6316 50.375H7C4.58763 50.375 2.625 48.4124 2.625 46ZM53.375 44.6858C53.375 45.0926 53.1151 45.4514 52.7275 45.5791C51.9645 45.8294 51.3625 46.3946 51.0773 47.1296C51.0405 47.2233 51.002 47.3169 50.9626 47.4079C50.6511 48.1254 50.6783 48.9453 51.0387 49.6584C51.2225 50.0215 51.1525 50.459 50.8646 50.7469L50.2477 51.3638C49.9599 51.6516 49.5224 51.7216 49.1592 51.5379C48.447 51.1774 47.6254 51.1502 46.9096 51.4618C46.8177 51.5011 46.7241 51.5396 46.6287 51.5773C45.8946 51.8625 45.3302 52.4645 45.0791 53.2284C44.9523 53.6151 44.5926 53.875 44.1858 53.875H43.3142C42.9074 53.875 42.5486 53.6151 42.4209 53.2275C42.1706 52.4645 41.6054 51.8625 40.8704 51.5773C40.7767 51.5405 40.6831 51.502 40.5921 51.4626C40.2614 51.3182 39.9088 51.2465 39.5544 51.2465C39.1405 51.2465 38.7257 51.3445 38.3416 51.5379C37.9776 51.7207 37.5401 51.6516 37.2531 51.3638L36.6362 50.7469C36.3484 50.459 36.2784 50.0215 36.4621 49.6584C36.8226 48.9453 36.8498 48.1254 36.5382 47.4088C36.4989 47.3169 36.4604 47.2233 36.4227 47.1279C36.1375 46.3938 35.5355 45.8294 34.7716 45.5783C34.3849 45.4523 34.125 45.0926 34.125 44.6858V43.8142C34.125 43.4074 34.3849 43.0486 34.7716 42.9209C35.5355 42.6706 36.1375 42.1054 36.4227 41.3704C36.4595 41.2767 36.498 41.1831 36.5374 41.0921C36.8489 40.3746 36.8217 39.5547 36.4613 38.8416C36.2775 38.4785 36.3475 38.0401 36.6354 37.7523L37.2514 37.1362C37.5393 36.8475 37.9767 36.7766 38.3408 36.9621C39.0539 37.3226 39.8746 37.3498 40.5904 37.0382C40.6831 36.998 40.7767 36.9595 40.8704 36.9236C41.6045 36.6375 42.1698 36.0355 42.4209 35.2725C42.5477 34.8849 42.9074 34.625 43.3142 34.625H44.1858C44.5926 34.625 44.9514 34.8849 45.0791 35.2725C45.3302 36.0355 45.8946 36.6375 46.6287 36.9227C46.7224 36.9595 46.816 36.998 46.9079 37.0374C47.6245 37.3489 48.4453 37.3209 49.1584 36.9613C49.5215 36.7766 49.959 36.8475 50.2477 37.1354L50.8638 37.7514C51.1516 38.0393 51.2216 38.4776 51.0379 38.8408C50.6774 39.5539 50.6502 40.3737 50.9618 41.0904C51.0011 41.1823 51.0396 41.2759 51.0773 41.3713C51.3625 42.1054 51.9645 42.6698 52.7284 42.9209C53.1151 43.0477 53.375 43.4074 53.375 43.8142V44.25V44.6858Z" fill="#0F62FE"/>
<path d="M32.375 8.375H34.125V10.125H32.375V8.375Z" fill="#0F62FE"/>
<path d="M35.875 8.375H37.625V10.125H35.875V8.375Z" fill="#0F62FE"/>
<path d="M32.375 22.375H34.125V24.125H32.375V22.375Z" fill="#0F62FE"/>
<path d="M35.875 22.375H37.625V24.125H35.875V22.375Z" fill="#0F62FE"/>
<path d="M46.375 15.375H48.125V17.125H46.375V15.375Z" fill="#0F62FE"/>
<path d="M42.875 15.375H44.625V17.125H42.875V15.375Z" fill="#0F62FE"/>
<path d="M46.375 29.375H48.125V31.125H46.375V29.375Z" fill="#0F62FE"/>
<path d="M42.875 29.375H44.625V31.125H42.875V29.375Z" fill="#0F62FE"/>
<path d="M26.25 32.875C25.5832 32.875 24.9209 32.9581 24.2812 33.1235L24.7179 34.8184C25.2149 34.6898 25.7302 34.625 26.25 34.625C29.0465 34.625 31.486 36.5141 32.1825 39.2188L33.8774 38.7821C32.9814 35.304 29.8454 32.875 26.25 32.875Z" fill="#0F62FE"/>
<path d="M16.625 38.125C14.1382 38.125 11.9744 39.8916 11.48 42.3259L13.195 42.6741C13.5249 41.0519 14.9669 39.875 16.625 39.875C17.7362 39.875 18.7574 40.3851 19.4259 41.2759L20.825 40.225C19.8222 38.8906 18.2919 38.125 16.625 38.125Z" fill="#0F62FE"/>
</svg>

<svg xmlns="http://www.w3.org/2000/svg" width="56" height="57" fill="none" viewBox="0 0 56 57"><path fill="#0f62fe" d="M43.75 38.125a6.13 6.13 0 0 0-6.125 6.125 6.13 6.13 0 0 0 6.125 6.125 6.13 6.13 0 0 0 6.125-6.125 6.13 6.13 0 0 0-6.125-6.125m0 10.5a4.38 4.38 0 0 1-4.375-4.375 4.38 4.38 0 0 1 4.375-4.375 4.38 4.38 0 0 1 4.375 4.375 4.38 4.38 0 0 1-4.375 4.375"/><path fill="#0f62fe" d="M43.75 41.625a2.63 2.63 0 0 0-2.625 2.625 2.63 2.63 0 0 0 2.625 2.625 2.63 2.63 0 0 0 2.625-2.625 2.63 2.63 0 0 0-2.625-2.625m0 3.5a.876.876 0 0 1-.875-.875c0-.482.393-.875.875-.875s.875.393.875.875a.876.876 0 0 1-.875.875M3.166 23.25H3.5v13.125h1.75V21.5H3.166a.54.54 0 0 1-.484-.782l2.96-5.919c.184-.368.782-.368.966 0l2.96 5.919a.54.54 0 0 1-.483.782H7v14.875h1.75V23.25h.334a2.293 2.293 0 0 0 2.05-3.315l-2.96-5.918a2.28 2.28 0 0 0-2.049-1.267c-.874 0-1.659.486-2.05 1.266l-2.958 5.919a2.293 2.293 0 0 0 2.05 3.315m13.159 2.233a2.28 2.28 0 0 0 2.049 1.267c.874 0 1.659-.486 2.05-1.266l2.959-5.919a2.293 2.293 0 0 0-2.05-3.315H21V3.125h-1.75V18h2.084a.54.54 0 0 1 .484.782l-2.96 5.919c-.184.368-.782.368-.966 0l-2.96-5.919a.54.54 0 0 1 .483-.782H17.5V3.125h-1.75V16.25h-.334a2.293 2.293 0 0 0-2.05 3.315z"/><path fill="#0f62fe" d="M50.75 1.375h-21a4.38 4.38 0 0 0-4.375 4.375v23.663a11.42 11.42 0 0 0-8.707 5.215l-.043-.003c-3.558 0-6.767 2.197-8.096 5.443A6.132 6.132 0 0 0 .875 46 6.13 6.13 0 0 0 7 52.125h28.539l.476.476a2.685 2.685 0 0 0 3.116.499.9.9 0 0 1 .765-.034q.17.075.34.141a.9.9 0 0 1 .522.567 2.69 2.69 0 0 0 2.556 1.851h.872a2.685 2.685 0 0 0 2.556-1.852.9.9 0 0 1 .52-.565q.173-.066.343-.14a.9.9 0 0 1 .764.033 2.685 2.685 0 0 0 3.116-.5l.617-.615a2.68 2.68 0 0 0 .499-3.116.9.9 0 0 1-.034-.765q.075-.17.141-.341a.9.9 0 0 1 .567-.522 2.69 2.69 0 0 0 1.85-2.556V5.75a4.38 4.38 0 0 0-4.375-4.375m-21 1.75h21a2.63 2.63 0 0 1 2.625 2.625V41.3c-.035-.013-.066-.03-.102-.042a.9.9 0 0 1-.565-.52 8 8 0 0 0-.14-.344.9.9 0 0 1 .033-.764 2.68 2.68 0 0 0-.5-3.116l-.476-.476V6.625c0-.965-.785-1.75-1.75-1.75h-19.25c-.965 0-1.75.785-1.75 1.75v23.062a11 11 0 0 0-1.75-.278V5.75a2.63 2.63 0 0 1 2.625-2.625m6.633 32.47a11.44 11.44 0 0 0-5.758-5.332v-2.638h19.25v7.507a2.7 2.7 0 0 0-1.506.267.9.9 0 0 1-.765.034 10 10 0 0 0-.34-.141.9.9 0 0 1-.522-.567 2.69 2.69 0 0 0-2.556-1.85h-.872a2.685 2.685 0 0 0-2.556 1.852.9.9 0 0 1-.521.565 9 9 0 0 0-.342.14.9.9 0 0 1-.764-.033 2.68 2.68 0 0 0-2.748.195m13.492-23.72h-19.25v-5.25h19.25zm-19.25 1.75h19.25v5.25h-19.25zm0 7h19.25v5.25h-19.25zM2.625 46a4.38 4.38 0 0 1 6.098-4.022l.909.39.277-.95a7.03 7.03 0 0 1 6.716-5.043 7 7 0 0 1 5.821 3.111l1.455-.972a8.74 8.74 0 0 0-5.265-3.648 9.66 9.66 0 0 1 7.614-3.741c3.826 0 7.308 2.31 8.824 5.79a2.68 2.68 0 0 0-.174 2.715.9.9 0 0 1 .034.765q-.075.17-.141.341a.9.9 0 0 1-.567.522 2.69 2.69 0 0 0-1.851 2.556v.872c0 1.164.744 2.192 1.852 2.556.264.086.47.276.565.52q.066.173.14.343a.9.9 0 0 1-.033.764c-.241.478-.322 1-.267 1.506H7A4.38 4.38 0 0 1 2.625 46m50.75-1.314a.94.94 0 0 1-.648.893 2.64 2.64 0 0 0-1.65 1.55 9 9 0 0 1-.114.279 2.64 2.64 0 0 0 .076 2.25.94.94 0 0 1-.174 1.089l-.617.617a.94.94 0 0 1-1.089.174 2.64 2.64 0 0 0-2.25-.076q-.137.06-.28.115a2.64 2.64 0 0 0-1.55 1.651.94.94 0 0 1-.893.647h-.872a.94.94 0 0 1-.893-.648 2.64 2.64 0 0 0-1.55-1.65 9 9 0 0 1-.279-.114 2.6 2.6 0 0 0-1.038-.217c-.413 0-.828.098-1.212.292a.94.94 0 0 1-1.089-.174l-.617-.617a.94.94 0 0 1-.174-1.089 2.64 2.64 0 0 0 .076-2.25 11 11 0 0 1-.115-.28 2.64 2.64 0 0 0-1.651-1.55.94.94 0 0 1-.647-.892v-.872a.94.94 0 0 1 .647-.893 2.64 2.64 0 0 0 1.65-1.55q.057-.142.115-.279a2.64 2.64 0 0 0-.076-2.25.94.94 0 0 1 .174-1.09l.616-.616a.935.935 0 0 1 1.09-.174 2.64 2.64 0 0 0 2.25.076q.139-.06.28-.114a2.65 2.65 0 0 0 1.55-1.651.94.94 0 0 1 .893-.648h.872a.94.94 0 0 1 .893.648 2.64 2.64 0 0 0 1.55 1.65q.14.055.279.114a2.65 2.65 0 0 0 2.25-.076.94.94 0 0 1 1.09.174l.616.616a.94.94 0 0 1 .174 1.09 2.64 2.64 0 0 0-.076 2.25q.06.137.115.28a2.64 2.64 0 0 0 1.651 1.55.94.94 0 0 1 .647.893z"/><path fill="#0f62fe" d="M32.375 8.375h1.75v1.75h-1.75zm3.5 0h1.75v1.75h-1.75zm-3.5 14h1.75v1.75h-1.75zm3.5 0h1.75v1.75h-1.75zm10.5-7h1.75v1.75h-1.75zm-3.5 0h1.75v1.75h-1.75zm3.5 14h1.75v1.75h-1.75zm-3.5 0h1.75v1.75h-1.75zm-16.625 3.5c-.667 0-1.33.083-1.969.248l.437 1.695a6.12 6.12 0 0 1 7.465 4.4l1.694-.436a7.87 7.87 0 0 0-7.627-5.907m-9.625 5.25a5.265 5.265 0 0 0-5.145 4.2l1.715.35a3.51 3.51 0 0 1 3.43-2.8c1.111 0 2.132.51 2.8 1.4l1.4-1.05a5.21 5.21 0 0 0-4.2-2.1"/></svg>
